packages/icons/src/components/ProductIcon/assets/custom-model.svg

<svg>
    <g clip-path="url(#clip0_4253_5045)" className="Style=Console">
        <path d="M0 16C0 7.16344 7.16344 0 16 0H48C56.8366 0 64 7.16344 64 16V48C64 56.8366 56.8366 64 48 64H16C7.16344 64 0 56.8366 0 48V16Z" fill="#F1EEFC" class="fillWeak"/>
        <path d="M34.423 21.0049C34.9271 21.0562 35.3205 21.4823 35.3205 22V24.7754C35.8004 24.9959 36.2544 25.2622 36.6769 25.5684L39.1603 24.1367L39.2521 24.0898C39.7143 23.8826 40.2678 24.0548 40.5265 24.5029L42.8664 28.5566C42.9989 28.7863 43.0346 29.0593 42.966 29.3154C42.8973 29.5715 42.7298 29.7903 42.5001 29.9229L39.9699 31.3818C39.9895 31.6076 40.0001 31.8365 40.0001 32.0684L39.9923 32.4209C39.9875 32.529 39.979 32.6364 39.9699 32.7432L42.5001 34.2041C42.9486 34.463 43.1211 35.0172 42.9132 35.4795L42.8664 35.5703L40.5265 39.624C40.3939 39.8537 40.1753 40.0212 39.9191 40.0898C39.663 40.1584 39.3899 40.1228 39.1603 39.9902L36.6837 38.5605C36.2592 38.8689 35.803 39.1367 35.3205 39.3584V42.1357C35.3205 42.688 34.8727 43.1357 34.3205 43.1357H29.6398C29.0876 43.1356 28.6398 42.6879 28.6398 42.1357V39.3594C28.1632 39.1408 27.7116 38.8777 27.2912 38.5742L24.84 39.9902C24.6104 40.1227 24.3373 40.1585 24.0812 40.0898C23.8251 40.0212 23.6063 39.8537 23.4738 39.624L21.1339 35.5703C20.858 35.0921 21.0221 34.4803 21.5001 34.2041L23.9884 32.7656C23.9785 32.6535 23.9711 32.5405 23.966 32.4268L23.9582 32.0684C23.9582 31.8289 23.9694 31.5924 23.9904 31.3594L21.5001 29.9229C21.2706 29.7903 21.103 29.5715 21.0343 29.3154C20.9657 29.0593 21.0014 28.7863 21.1339 28.5566L23.4738 24.5029L23.5294 24.417C23.8258 24.006 24.3916 23.8781 24.84 24.1367L27.298 25.5557C27.7163 25.2542 28.1656 24.9921 28.6398 24.7744V22L28.6447 21.8975C28.696 21.3934 29.1222 21.0001 29.6398 21H34.3205L34.423 21.0049ZM30.6398 25.4473C30.6398 25.8711 30.3724 26.2484 29.9728 26.3896C29.2581 26.6422 28.6043 27.0279 28.0402 27.5166C27.7181 27.7953 27.2548 27.8398 26.8859 27.627L24.7062 26.3682L23.3664 28.6895L25.5695 29.9619C25.8887 30.1462 26.077 30.4882 26.0695 30.8486L26.0539 31.0039C25.9918 31.3521 25.9582 31.7078 25.9582 32.0684L25.964 32.3359C25.9762 32.6025 26.0061 32.866 26.0519 33.125L26.0675 33.2793C26.0736 33.5879 25.9365 33.8833 25.6964 34.0771L25.5675 34.165L23.3654 35.4355L24.7052 37.7568L26.8791 36.5029L27.0216 36.4355C27.3623 36.305 27.7525 36.3697 28.0343 36.6143C28.5991 37.1048 29.255 37.4914 29.9728 37.7451C30.3724 37.8864 30.6398 38.2637 30.6398 38.6875V41.1357H33.3205V38.6875C33.3205 38.2638 33.5881 37.8865 33.9875 37.7451C34.71 37.4896 35.3695 37.0981 35.9376 36.6016L36.0646 36.5068C36.3745 36.3125 36.7717 36.3013 37.0959 36.4883L39.2941 37.7568L40.6339 35.4355L38.3947 34.1436C38.0316 33.9338 37.8377 33.5196 37.9093 33.1064C37.9683 32.7671 38.0001 32.4204 38.0001 32.0684C38.0001 31.8026 37.9818 31.5396 37.9474 31.2803L37.9074 31.0225C37.835 30.6089 38.0291 30.1934 38.3927 29.9834L40.633 28.6895L39.2931 26.3682L37.089 27.6406C36.7191 27.8539 36.2537 27.8089 35.9318 27.5283C35.3648 27.0342 34.7072 26.6442 33.9875 26.3896C33.588 26.2483 33.3205 25.871 33.3205 25.4473V23H30.6398V25.4473ZM32.0001 28C34.2093 28 36.0001 29.7909 36.0001 32C36.0001 34.2091 34.2093 36 32.0001 36C29.7911 35.9999 28.0001 34.2091 28.0001 32C28.0001 29.7909 29.7911 28.0001 32.0001 28ZM32.0001 30C30.8957 30.0001 30.0001 30.8955 30.0001 32C30.0001 33.1045 30.8957 33.9999 32.0001 34C33.1047 34 34.0001 33.1046 34.0001 32C34.0001 30.8954 33.1047 30 32.0001 30Z" fill="#A060F6" class="fillStrong"/>
        <path d="M31.9998 13.0477C38.582 7.99051 46.1947 13.1864 45.8201 19.2069C47.0749 19.7161 48.0295 20.4514 48.7176 21.3514C49.5394 22.4264 49.9333 23.6724 50.0623 24.9061C50.2858 27.0447 49.7282 29.2555 49.0799 30.8368C52.0563 34.2353 52.6722 37.8011 51.3191 40.6532C50.0379 43.3535 47.1332 45.0965 43.5867 45.3661C43.4759 47.2627 43.0318 48.7737 42.3093 49.9452C41.4593 51.3233 40.2699 52.1586 38.9685 52.5975C36.5872 53.4005 33.8681 52.8743 31.9998 52.1551C30.1314 52.8743 27.4123 53.4005 25.031 52.5975C23.7297 52.1586 22.5402 51.3233 21.6902 49.9452C20.9677 48.7737 20.5227 47.2627 20.4119 45.3661C16.8659 45.0963 13.9615 43.3533 12.6804 40.6532C11.3274 37.8012 11.9427 34.2352 14.9187 30.8368C14.2704 29.2556 13.7138 27.0445 13.9373 24.9061C14.0662 23.6724 14.4601 22.4264 15.282 21.3514C15.9699 20.4516 16.9241 19.7161 18.1785 19.2069C17.8039 13.1864 25.4176 7.99053 31.9998 13.0477ZM31.0388 17.7147V14.8377C25.4405 10.2365 19.3943 15.1783 20.2517 19.6961C20.341 20.1673 20.0833 20.6307 19.6472 20.8084L19.5574 20.8397C18.2534 21.2323 17.4128 21.8562 16.8699 22.5662C16.3214 23.2839 16.0267 24.1559 15.9265 25.1141C15.723 27.0626 16.3411 29.2143 16.9988 30.6004C17.1759 30.9738 17.1055 31.4178 16.8211 31.7176C13.839 34.8605 13.5266 37.7709 14.4871 39.7957C15.4705 41.8685 17.9632 43.4051 21.3845 43.4051C21.9367 43.4053 22.3845 43.8529 22.3845 44.4051C22.3846 46.5084 22.8008 47.9362 23.3924 48.8953C23.9745 49.8392 24.7677 50.3977 25.6697 50.702C27.3224 51.2593 29.3637 50.963 30.9607 50.4051V47.0008C30.9607 46.4487 31.4086 46.0011 31.9607 46.0008C32.513 46.0008 32.9607 46.4485 32.9607 47.0008V50.3768C34.5689 50.9524 36.65 51.2685 38.3299 50.702C39.2318 50.3977 40.025 49.8392 40.6072 48.8953C41.1987 47.9362 41.615 46.5084 41.615 44.4051C41.615 43.8529 42.0629 43.4053 42.615 43.4051C46.0364 43.4051 48.5291 41.8685 49.5125 39.7957C50.473 37.7709 50.1606 34.8605 47.1785 31.7176C46.894 31.4178 46.8236 30.9738 47.0008 30.6004L47.1228 30.3319C47.732 28.9462 48.2639 26.941 48.073 25.1141C47.9728 24.1559 47.6781 23.2839 47.1297 22.5662C46.5868 21.8562 45.7462 21.2323 44.4422 20.8397C43.9524 20.6921 43.6526 20.1987 43.7478 19.6961C44.6013 15.1992 38.6153 10.2828 33.0388 14.7752V17.7147C33.0388 18.2668 32.5909 18.7144 32.0388 18.7147C31.4866 18.7147 31.0388 18.267 31.0388 17.7147Z" fill="#521094" class="fill"/>
    </g>
</svg>

<svg>
    <g className="Style=Console" clip-path="url(#clip0_4253_5045)">
        <path fill="#f1eefc" d="M0 16C0 7.163 7.163 0 16 0h32c8.837 0 16 7.163 16 16v32c0 8.837-7.163 16-16 16H16C7.163 64 0 56.837 0 48z" class="fillWeak"/>
        <path fill="#a060f6" d="M34.423 21.005a1 1 0 0 1 .898.995v2.775c.48.22.933.487 1.356.793l2.483-1.431.092-.047a1 1 0 0 1 1.274.413l2.34 4.054a1 1 0 0 1-.366 1.366l-2.53 1.459q.03.338.03.686l-.008.353a8 8 0 0 1-.022.322l2.53 1.461a1 1 0 0 1 .413 1.276l-.047.09-2.34 4.054a1 1 0 0 1-1.366.366l-2.476-1.43q-.639.465-1.363.798v2.778a1 1 0 0 1-1 1H29.64a1 1 0 0 1-1-1v-2.777a8 8 0 0 1-1.349-.785L24.84 39.99a1 1 0 0 1-1.366-.366l-2.34-4.054a1 1 0 0 1 .366-1.366l2.488-1.438a8 8 0 0 1-.022-.34l-.008-.358q0-.36.032-.709l-2.49-1.436a1 1 0 0 1-.366-1.366l2.34-4.054.055-.086a1 1 0 0 1 1.311-.28l2.458 1.419a8 8 0 0 1 1.342-.782V22l.005-.102A1 1 0 0 1 29.64 21h4.68zm-3.783 4.442a1 1 0 0 1-.667.943 6 6 0 0 0-1.933 1.127 1 1 0 0 1-1.154.11l-2.18-1.259-1.34 2.322 2.204 1.272a1 1 0 0 1 .5.887l-.016.155a6 6 0 0 0-.096 1.064l.006.268q.019.4.088.789l.015.154a1 1 0 0 1-.37.798l-.13.088-2.202 1.27 1.34 2.322 2.174-1.254.143-.068a1 1 0 0 1 1.012.18c.565.49 1.221.876 1.939 1.13a1 1 0 0 1 .667.943v2.448h2.68v-2.449a1 1 0 0 1 .667-.942 6 6 0 0 0 1.95-1.143l.128-.095a1 1 0 0 1 1.03-.019l2.2 1.269 1.339-2.322-2.24-1.291a1 1 0 0 1-.485-1.038 6 6 0 0 0 .038-1.826l-.04-.258a1 1 0 0 1 .486-1.039l2.24-1.294-1.34-2.32-2.204 1.272a1 1 0 0 1-1.157-.113 6 6 0 0 0-1.945-1.138 1 1 0 0 1-.666-.943V23H30.64zM32 28a4 4 0 1 1 0 8 4 4 0 0 1 0-8m0 2a2 2 0 1 0 0 4 2 2 0 0 0 0-4" class="fillStrong"/>
        <path fill="#521094" d="M32 13.048c6.582-5.057 14.195.138 13.82 6.159 1.255.51 2.21 1.244 2.898 2.144.821 1.075 1.215 2.321 1.344 3.555.224 2.139-.334 4.35-.982 5.93 2.976 3.4 3.592 6.965 2.24 9.817-1.282 2.7-4.187 4.444-7.733 4.713-.111 1.897-.555 3.408-1.278 4.58a6.15 6.15 0 0 1-3.34 2.651c-2.382.803-5.1.277-6.97-.442-1.868.72-4.587 1.245-6.968.442a6.15 6.15 0 0 1-3.34-2.652c-.723-1.171-1.168-2.682-1.28-4.579-3.545-.27-6.45-2.013-7.73-4.713-1.354-2.852-.738-6.418 2.238-9.816-.649-1.581-1.205-3.793-.982-5.93.13-1.235.523-2.48 1.345-3.556.688-.9 1.642-1.635 2.896-2.144-.374-6.02 7.24-11.216 13.822-6.16m-.961 4.667v-2.877c-5.599-4.601-11.645.34-10.787 4.858a1 1 0 0 1-.605 1.112l-.09.032c-1.304.392-2.144 1.016-2.687 1.726-.549.718-.843 1.59-.944 2.548-.203 1.949.415 4.1 1.073 5.486a1 1 0 0 1-.178 1.118c-2.982 3.143-3.294 6.053-2.334 8.078.983 2.072 3.476 3.61 6.897 3.61a1 1 0 0 1 1 1c0 2.102.417 3.53 1.008 4.49a4.15 4.15 0 0 0 2.278 1.806c1.652.557 3.694.261 5.29-.297V47a1 1 0 0 1 2 0v3.376c1.609.575 3.69.892 5.37.325a4.15 4.15 0 0 0 2.277-1.807c.592-.959 1.008-2.387 1.008-4.49a1 1 0 0 1 1-1c3.421 0 5.914-1.537 6.898-3.61.96-2.024.648-4.934-2.334-8.077A1 1 0 0 1 47 30.6l.122-.268c.609-1.386 1.14-3.391.95-5.218-.1-.958-.395-1.83-.943-2.548-.543-.71-1.384-1.334-2.688-1.726a1 1 0 0 1-.694-1.144c.853-4.497-5.133-9.413-10.71-4.92v2.939a1 1 0 0 1-2 0" class="fill"/>
    </g>
</svg>
